<?xml version="1.0" encoding="UTF-8"?>
<map version="1.10" tiledversion="1.12.2" orientation="orthogonal" renderorder="right-down" width="10" height="10" tilewidth="64" tileheight="64" infinite="0" nextlayerid="9" nextobjectid="96">
 <tileset firstgid="1" source="SPRING_TREE1.tsx"/>
 <tileset firstgid="2" source="TILESET_SPRING.tsx"/>
 <tileset firstgid="18" source="Stone1.tsx"/>
 <tileset firstgid="19" source="SHOP_WAGGON_1.tsx"/>
 <tileset firstgid="20" source="SPRING_TREE2.tsx"/>
 <tileset firstgid="21" source="ENEMY_1.tsx"/>
 <layer id="3" name="Kachelebene 1" width="10" height="10">
  <data encoding="csv">
14,14,3,13,14,14,14,14,14,14,
14,14,3,13,14,14,14,14,14,14,
14,14,3,13,14,14,14,14,14,14,
14,14,3,13,14,14,14,14,14,14,
14,14,3,13,14,14,14,14,14,14,
14,14,3,13,14,14,14,14,14,14,
14,14,3,4,5,5,5,5,2,14,
14,14,10,11,11,11,11,12,13,14,
14,14,14,14,14,14,14,3,13,14,
14,14,14,14,14,14,14,3,13,14
</data>
 </layer>
 <objectgroup id="4" name="Objektebene 1">
  <object id="9" type="tree" gid="1" x="256" y="128" width="128" height="192"/>
  <object id="10" type="tree" gid="1" x="0" y="128" width="128" height="192"/>
  <object id="12" type="tree" gid="1" x="0" y="256" width="128" height="192"/>
  <object id="13" type="tree" gid="1" x="256" y="256" width="128" height="192"/>
  <object id="26" type="tree" gid="1" x="0" y="384" width="128" height="192"/>
  <object id="27" type="tree" gid="1" x="256" y="384" width="128" height="192"/>
  <object id="28" gid="18" x="320" y="384" width="64" height="64"/>
  <object id="29" gid="18" x="505.333" y="196" width="64" height="64"/>
  <object id="30" gid="18" x="576" y="384" width="64" height="64"/>
  <object id="32" gid="18" x="128" y="576" width="64" height="64"/>
  <object id="34" gid="18" x="64" y="192" width="64" height="64"/>
  <object id="35" gid="18" x="-9.33333" y="97.3333" width="64" height="64"/>
  <object id="36" gid="18" x="384" y="640" width="64" height="64"/>
  <object id="37" gid="18" x="0" y="512" width="64" height="64"/>
  <object id="39" gid="18" x="256" y="64" width="64" height="64"/>
  <object id="40" gid="19" x="346.667" y="432" width="192" height="128"/>
  <object id="46" type="tree" gid="20" x="221.333" y="630.667" width="128" height="192"/>
  <object id="47" type="tree" gid="20" x="77.3333" y="592" width="128" height="192"/>
  <object id="52" type="tree" gid="20" x="405.333" y="305.333" width="128" height="192"/>
  <object id="53" type="tree" gid="20" x="494.667" y="152" width="128" height="192"/>
  <object id="57" type="tree" gid="20" x="514.667" y="404" width="128" height="192"/>
  <object id="91" gid="21" x="158.582" y="113.64" width="64" height="128"/>
 </objectgroup>
 <objectgroup id="5" name="collision">
  <object id="59" type="solid" x="566.636" y="375.637" width="27.25" height="18.4086"/>
  <object id="64" type="solid" x="373.749" y="370.909" width="142.911" height="35.2285"/>
  <object id="67" type="solid" x="456.886" y="280.251" width="28" height="14.1357"/>
  <object id="68" type="solid" x="527.5" y="161.5" width="19.5" height="14.5"/>
  <object id="69" type="solid" x="542.5" y="126.978" width="35" height="14.1357"/>
  <object id="70" type="solid" x="405.114" y="604.864" width="21" height="13.5"/>
  <object id="72" type="solid" x="270.667" y="600" width="31" height="17.6667"/>
  <object id="73" type="solid" x="303.977" y="357.409" width="27.75" height="17.5"/>
  <object id="74" type="solid" x="341" y="350.5" width="20.5" height="10.75"/>
  <object id="75" type="solid" x="127.333" y="562.667" width="28.6667" height="16.6667"/>
  <object id="76" type="solid" x="149.667" y="541.667" width="20" height="12"/>
  <object id="77" type="solid" x="21.5" y="478.75" width="21.25" height="10.5"/>
  <object id="78" type="solid" x="49" y="359.659" width="28.6667" height="16"/>
  <object id="80" type="solid" x="53.125" y="212.966" width="21" height="14.625"/>
  <object id="81" type="solid" x="51" y="86.3186" width="25.6667" height="15.6667"/>
  <object id="82" type="solid" x="13" y="65.3333" width="19.3333" height="12.6667"/>
  <object id="83" type="solid" x="307.667" y="78" width="24.6667" height="13.6667"/>
  <object id="84" type="solid" x="307.667" y="207.667" width="26" height="15.6667"/>
  <object id="85" type="solid" x="598.5" y="351" width="19.5" height="11.25"/>
 </objectgroup>
 <objectgroup id="8" name="entities">
  <object id="90" name="player_spawn" type="spawn" x="492.499" y="626.568">
   <point/>
  </object>
  <object id="93" x="114.349" y="-171.08"/>
 </objectgroup>
 <objectgroup id="7" name="triggers">
  <object id="88" type="shop" x="419.319" y="419.823" width="48" height="19.3333"/>
  <object id="95" type="enemy1" x="172.41" y="158.67" width="38.1163" height="31.9114"/>
 </objectgroup>
</map>
